svgs/sharp-light/dog-leashed.svg

<svg xmlns="http://www.w3.org/2000/svg" viewBox="0 0 576 512"><!--! Font Awesome Pro 6.6.0 by @fontawesome - https://fontawesome.com License - https://fontawesome.com/license (Commercial License) Copyright 2024 Fonticons, Inc. --><path d="M336 331.5l0 43.8L336 480l64 0 0-218.1c0 0 0 0-.1 0L307.7 208l-1 0L288 208l0 138.7c2.1-.6 4.2-1.2 6.3-1.9L336 331.5zm-80 20.3L256 208l-64 0-56 0-40 0 0 272 64 0 0-104.7 0-43.8 41.7 13.3c14.5 4.6 30.1 7.2 46.3 7.2c2.7 0 5.4-.1 8-.2zM405.8 218.7l4.5-26.7 27.1 0 42.7 0c35.3 0 64-28.7 64-64l0-32-48 0-13.3 0-9.4-9.4L450.7 64 400 64l-16 0-9.6-12.8L362.5 35.4 338.2 181.3l-1.1 6.9 67.2 39.2 1.4-8.6zM64 206c-.7-.2-1.4-.3-2.1-.5C39.2 199.6 20 183.9 9.8 162.5c-2.3-4.8-4.1-9.8-5.4-15.1c0 0 0 0 0 0L.5 131.9l31-7.8 3.9 15.5c.3 1.4 .8 2.7 1.2 4.1c2 5.8 5.1 11.1 9 15.6C54.5 169.7 67.6 176 82 176l54 0 56 0 65.7 0L70.1 28.6 89.9 3.4 307 174 336 0l40 0 24 32 64 0 32 32 48 0 32 0 0 32 0 32c0 53-43 96-96 96l-42.7 0L432 256l0 224 0 32-32 0-64 0-32 0 0-32 0-71.3 0-33.3c-10.3 3.3-21 5.7-32 7.1c-7.9 1-15.9 1.6-24 1.6s-16.1-.5-24-1.6c-11-1.4-21.7-3.8-32-7.1l0 33.3 0 71.3 0 32-32 0-64 0-32 0 0-32 0-274zM432 96a16 16 0 1 1 0 32 16 16 0 1 1 0-32z"/></svg>

<svg xmlns="http://www.w3.org/2000/svg" viewBox="0 0 576 512"><!--! Font Awesome Pro 6.4.0 by @fontawesome - https://fontawesome.com License - https://fontawesome.com/license (Commercial License) Copyright 2023 Fonticons, Inc. --><path d="M336 331.5v43.8V480h64V261.9l-.1 0L307.7 208h-1H288V346.7c2.1-.6 4.2-1.2 6.3-1.9L336 331.5zm-80 20.3V208H192 136 96V480h64V375.3 331.5l41.7 13.3c14.5 4.6 30.1 7.2 46.3 7.2c2.7 0 5.4-.1 8-.2zM405.8 218.7l4.5-26.7h27.1H480c35.3 0 64-28.7 64-64V96H496 482.7l-9.4-9.4L450.7 64H400 384l-9.6-12.8L362.5 35.4 338.2 181.3l-1.1 6.9 67.2 39.2 1.4-8.6zM64 206c-.7-.2-1.4-.3-2.1-.5C39.2 199.6 20 183.9 9.8 162.5c-2.3-4.8-4.1-9.8-5.4-15.1l0 0L.5 131.9l31-7.8 3.9 15.5c.3 1.4 .8 2.7 1.2 4.1c2 5.8 5.1 11.1 9 15.6C54.5 169.7 67.6 176 82 176h54 56 65.7L70.1 28.6 89.9 3.4 307 174 336 0h40l24 32h64l32 32h48 32V96v32c0 53-43 96-96 96H437.3L432 256V480v32H400 336 304V480 408.7 375.3c-10.3 3.3-21 5.7-32 7.1c-7.9 1-15.9 1.6-24 1.6s-16.1-.5-24-1.6c-11-1.4-21.7-3.8-32-7.1v33.3V480v32H160 96 64V480 206zM432 96a16 16 0 1 1 0 32 16 16 0 1 1 0-32z"/></svg>
